X:1
T:ONCE I WAS TOLD IN GLEE or THE VIKING BRIDE
T:ONCE AS I TOLD IN GLEE or THE VIKING BRIDE
T:Ballad of the SKELETON IN ARMOR
T:Music by M.C.Z.
T:Taken from PROFESSOR LONGFELLOW
T:August 17, 1852
T:August 17, 1852
T:August 17, 1852
T:August 17, 1852
T:August 17, 1852
C:M.C.Z.
Z:Taken from PROFESSOR LONGFELLOW
Z:August 17, 1852
%%score 1 { 2 | 3 }
L:1/8
Q:1/4=92
M:3/4
K:Eb
V:1 treble nm="Voice"
V:2 treble nm="Piano"
V:3 bass 
V:1
"^Andante" z6 | z6 | z6 | z6 | z6 | z6 | z6 | z6 | z6 | z6 | z6 | z6 | z6 | z6 | z6 | z6 |] %16
w: ||||||||||||||||
 E2 G2 B2 | A3 F D2 | B,2 D2 F2 | e3 B F2 | G2 B2 e2 | d3 c A2 | G2 B2 G2 | G2 F4 | B2 A2 G2 | %25
w: Once as I|told in glee|Tales of the|storm- y sea.|Soft eyes did|gaze on me|Burn- ing yet|ten- der;|And as the|
 e3 d c2 | A2 G2 F2 | c3 B G2 | G2 F2 G2 | A3 F D2 | B,2 C2 D2 | F2 E4 | z6 | z6 | z6 | z6 |] %36
w: white stars shine|on the dark|Nor- way pine,|On that dark|heart of mine|Fell their soft|splen- der.|||||
 E2 G2 B2 | A3 F D2 | B,2 D2 F2 | c3 B G2 | G2 B2 e2 | c3 B A2 | G2 B2 G2 | G2 F4 | B2 A3 G | %45
w: She was a|Prince's * child,|I but a|Vi- king wild,|and though she|blushed and smiled,|I was dis-|card- ed!|Should not the|
 e3 d c2 | A2 G3 F | c3 B G2 | G2 F2 G2 | A3 F D2 | B,2 C2 D2 | F2 E2 z2 | z6 | z6 | z6 | %55
w: dove so white|Fol- low the|sea- mew's flight|Why did they|leave that night?|Her nest un-|guard- ed.||||
 E2 G2 B2 | A3 F D2 | B,2 D2 F2 | e3 B F2 | G2 B2 e2 | d3 c A2 | G2 B2 G2 | G2 F4 | B2 A2 G2 | %64
w: As with his|wings as lant,|Sails the fierce|cor- mant,- *|Seek- ing some|rock- y haunt,|With his prey|lad- en;|So to- ward|
 e3 d c2 | A2 G2 F2 | c3 B G2 | G2 F2 G2 | A3 F D2 | B,2 C2 D2 | F2 E4 | z6 | z6 | z6 | z6 | %75
w: the open main,|Beat- ing the|sea a- gain,|Throug the wild|hur- ri- cane,|Bore I the|maid- en.|||||
 E2 G2 B2 | A3 F D2 | B,2 D2 F2 | c3 B G2 | G2 B2 e2 | c3 B A2 | G2 B2 G2 | G2 F4 | B2 A3 G | %84
w: Three weeks we|west- ward bore,|And when the|storm was o'er|Cloud- like we|saw the shore|Stretch- ing to|lee- ward;|There for my|
 e3 d c2 | A2 G3 F | c3 B G2 | G2 F2 G2 | A3 F D2 | B,2 C2 D2 | F2 E2 z2 | z6 | z6 | z6 | z6 |] %95
w: lad- y's bower|Built I the|lof- y tower|Which to this|ver- y hour,|Stands look- ing|sea- ward.|||||
V:2
!p! e2 g2 b2 | !>!a3 f d2 | B2 f2 a2 | !>!c'3 b g2 | g2 b2 e'2 | !>!d'3 c' a2 | g2 b2 g2 |{/g} f6 | %8
 b4 (ag) | e'4 (d'c') | a4 (gf) | a4 (gf) | g2 b2 g2 | a2 f2 d2 | B2 c2 d2 |{/e} e4 z2 |] %16
 (G,B, EB, G,B,) | (A,B, DB, A,B,) | (A,B, DB, A,B,) | (A,B, EB, G,B,) | (G,B, EB, G,B,) | %21
 (A,C EC A,C) | (G,B, EB, G,B,) | (A,B, DB, A,B,) | z2 [B,EG]2 [B,EG]2 | z2 [CEA]2 [CEA]2 | %26
 z2 [B,DA]2 [B,DA]2 | z2 [B,EG]2 [B,EG]2 | z2 [B,EG]2 [B,EG]2 | z2 [B,DA]2 [B,DA]2 | %30
 z2 [B,DB]2 [B,DB]2 | [B,DA]2 [B,EG]4 | g4 ^fg | b4 dB | B4 dB | [Ge]4 z2 |] (G,B, EB, G,B,) | %37
 (A,B, DB, A,B,) | (A,B, DB, A,B,) | (G,B, EB, G,B,) | (G,B, EB, G,B,) | (A,C EC A,C) | %42
 (G,B, EB, G,B,) | (A,B, DB, A,B,) | z2 [B,E]2 [B,EG]2 | z2 [CEA]2 [CEA]2 | z2 [B,DA]2 [B,DA]2 | %47
 z2 [B,EG]2 [B,EG]2 | z2 [B,EG]2 [B,EG]2 | z2 [B,DA]2 [B,DA]2 | z2 [B,DA]2 [B,DA]2 | %51
 [B,DA]2 [B,EG]4 | g4 _g=g | b4 fd | B4 cB | (G,B, EB, G,B,) | (A,B, DB, A,B,) | (A,B, DB, A,B,) | %58
 (A,B, EB, G,B,) | (G,B, EB, G,B,) | (A,C EC A,C) | (G,B, EB, G,B,) | (A,B, DB, A,B,) | %63
 z2 [B,EG]2 [B,EG]2 | z2 [CEA]2 [CEA]2 | z2 [B,DA]2 [B,DA]2 | z2 [B,EG]2 [B,EG]2 | %67
 z2 [B,EG]2 [B,EG]2 | z2 [B,DA]2 [B,DA]2 | z2 [B,DB]2 [B,DB]2 | [B,DA]2 [B,EG]4 | g4 ^fg | b4 dB | %73
 B4 dB | [Ge]4 z2 | (G,B, EB, G,B,) | (A,B, DB, A,B,) | (A,B, DB, A,B,) | (G,B, EB, G,B,) | %79
 (G,B, EB, G,B,) | (A,C EC A,C) | (G,B, EB, G,B,) | (A,B, DB, A,B,) | z2 [B,E]2 [B,EG]2 | %84
 z2 [CEA]2 [CEA]2 | z2 [B,DA]2 [B,DA]2 | z2 [B,EG]2 [B,EG]2 | z2 [B,EG]2 [B,EG]2 | %88
 z2 [B,DA]2 [B,DA]2 | z2 [B,DA]2 [B,DA]2 | [B,DA]2 [B,EG]4 | g4 _g=g | b4 fd | B4 cB | [Ge]4 z2 |] %95
V:3
 [E,E]2 [B,EG]2 [B,EG]2 | [B,,B,]2 [B,DF]2 [B,DF]2 | [B,,B,]2 [B,DF]2 [B,DF]2 | %3
 [E,E]2 [B,EG]2 [B,EG]2 | [E,E]2 [B,EG]2 [B,EG]2 | [A,,A,]2 [E,A,C]2 [E,A,C]2 | %6
 [E,E]2 [B,EG]2 [B,EG]2 | [E,E]2 [F,B,D]2 [F,B,D]2 | [C,C]2 [B,EG]2 [B,EG]2 | %9
 [A,,A,]2 [E,A,C]2 [E,A,C]2 | [B,,A,]2 [F,B,D]2 [F,B,D]2 | [A,,A,]2 [E,A,C]2 [E,A,C]2 | %12
 [E,E]2 [B,EG]2 [B,EG]2 | [B,,B,]2 [F,B,D]2 [F,B,D]2 | [B,,F,A,]2 [B,,F,A,]2 [B,,F,A,]2 | %15
 [E,G,]4 z2 |] [E,,E,]2 z2 z2 | [B,,,B,,]2 z2 z2 | [D,,D,]2 z2 z2 | [C,,C,]2 z2 z2 | %20
 [E,,E,]2 z2 z2 | [A,,,A,,]2 z2 z2 | [E,,E,]2 z2 z2 | [B,,,B,,]6 | [E,,E,]2 z2 z2 | %25
 [A,,A,]2 z2 z2 | [B,,,B,,]2 z2 z2 | [E,,E,]2 z2 z2 | [E,,E,]2 z2 z2 | [B,,,B,,]2 z2 z2 | %30
 [B,,,B,,]2 z2 z2 | [B,,,B,,]2 [E,,E,]4 | [E,,E,]2 [B,EG]2 [B,EG]2 | [B,,B,]2 [F,B,D]2 [F,B,D]2 | %34
 [B,,B,]2 [F,B,D]2 [F,B,D]2 | [E,E]4 z2 |] [E,,E,]2 z2 z2 | [B,,,B,,]2 z2 z2 | [B,,,B,,]2 z2 z2 | %39
 [E,,E,]2 z2 z2 | [E,,E,]2 z2 z2 | [A,,,A,,]2 z2 z2 | [B,,,B,,]2 z2 z2 | [B,,,B,,]6 | %44
 [E,,E,]2 z2 z2 | [A,,A,]2 z2 z2 | [B,,,B,,]2 z2 z2 | [E,,E,]2 z2 z2 | [E,,E,]2 z2 z2 | %49
 [B,,,B,,]2 z2 z2 | [B,,,B,,]2 z2 z2 | [B,,,B,,]2 [E,,E,]4 | [E,,E,]2 [B,EG]2 [B,EG]2 | %53
 [B,,B,]2 [F,B,D]2 [F,B,D]2 | [B,,B,]2 [F,B,D]2 [F,B,D]2 | [E,,E,]2 z2 z2 | [B,,,B,,]2 z2 z2 | %57
 [D,,D,]2 z2 z2 | [C,,C,]2 z2 z2 | [E,,E,]2 z2 z2 | [A,,,A,,]2 z2 z2 | [E,,E,]2 z2 z2 | %62
 [B,,,B,,]6 | [E,,E,]2 z2 z2 | [A,,A,]2 z2 z2 | [B,,,B,,]2 z2 z2 | [E,,E,]2 z2 z2 | %67
 [E,,E,]2 z2 z2 | [B,,,B,,]2 z2 z2 | [B,,,B,,]2 z2 z2 | [B,,,B,,]2 [E,,E,]4 | %71
 [E,,E,]2 [B,EG]2 [B,EG]2 | [B,,B,]2 [F,B,D]2 [F,B,D]2 | [B,,B,]2 [F,B,D]2 [F,B,D]2 | [E,E]4 z2 | %75
 [E,,E,]2 z2 z2 | [B,,,B,,]2 z2 z2 | [B,,,B,,]2 z2 z2 | [E,,E,]2 z2 z2 | [E,,E,]2 z2 z2 | %80
 [A,,,A,,]2 z2 z2 | [B,,,B,,]2 z2 z2 | [B,,,B,,]6 | [E,,E,]2 z2 z2 | [A,,A,]2 z2 z2 | %85
 [B,,,B,,]2 z2 z2 | [E,,E,]2 z2 z2 | [E,,E,]2 z2 z2 | [B,,,B,,]2 z2 z2 | [B,,,B,,]2 z2 z2 | %90
 [B,,,B,,]2 [E,,E,]4 | [E,,E,]2 [B,EG]2 [B,EG]2 | [B,,B,]2 [F,B,D]2 [F,B,D]2 | %93
 [B,,B,]2 [F,B,D]2 [F,B,D]2 | [E,E]4 z2 |] %95

